src/components/icon/assets/polygon.svg

<!--
  - SPDX-License-Identifier: Apache-2.0
  -
  - The OpenSearch Contributors require contributions made to
  - this file be licensed under the Apache-2.0 license or a
  - compatible open source license.
  -
  - Modifications Copyright OpenSearch Contributors. See
  - GitHub history for details.
  -->

<svg  viewBox="0 0 16 16" xmlns="http://www.w3.org/2000/svg" fillRule="evenodd">
  <path d="m1 5v-4h4v1.3h6v-1.3h3.9999v4h-2.9342l-0.8077 1h0.7419v4h-0.7597l0.8 1h2.9599v4h-4v-1.5h-5.9999v1.5h-3.9999v-4h1.5v-6l-1.5002-6e-5zm1-3.0001h2v2h-2v-2zm9 10.5v-1.1996l-1.0402-1.3004h-1.9597v-4h1.9727l1.0273-1.272v-1.4281h-5.9999v1.7h-1.5v6h1.5v1.5001h5.9999zm1.0001-10.5h2v2h-2v-2zm-8.0002 10h-2v2h2v-2zm5.0001-5.0001h2v2h-2v-2zm3.0001 5.0001h2v2h-2v-2z" />
</svg>

<!--
  - Copyright OpenSearch Contributors
  - SPDX-License-Identifier: Apache-2.0
  -->

<svg xmlns="http://www.w3.org/2000/svg" width="16" height="16" viewBox="0 0 16 16">
  <path
    d="M15 11v4h-4v-1.5H5V15H1v-4h1.5V5H1V1h4v1.3h6V1h4v4h-2.9l-.8 1h.7v4h-.8l.8 1h3zm-1 3v-2h-2v2h2zm0-10V2h-2v2h2zm-3 8.5v-1.2L10 10H8V6h2l1-1.3V3.3H5V5H3.5v6H5v1.5h6zM11 9V7H9v2h2zm-7 5v-2H2v2h2zM4 4V2H2v2h2z" />
</svg>
